X: 1
T: Forgotten Fling
M: 4/4
L: 1/8
R: hornpipe
K: Gmaj
|:G3F FGGA|ABBG Bcdc|ABBA/>F/ G3F|FGGF EFFE|
DBBA BBBD|DEcB cedc|B3c BAGA|DED2 D3z:|
